dist/static/img/bitrix/02.svg

<svg width="48" height="48" viewBox="0 0 48 48" fill="none" xmlns="http://www.w3.org/2000/svg">
<g clip-path="url(#clip0_1071_3748)">
<path d="M6.19147 20.043H4.78944C4.40084 20.043 4.08594 20.3579 4.08594 20.7465C4.08594 21.1351 4.40084 21.45 4.78944 21.45H6.19156C6.58016 21.45 6.89506 21.1351 6.89506 20.7465C6.89506 20.3579 6.58006 20.043 6.19147 20.043Z" fill="#1F5AFF"/>
<path d="M6.19147 16.666H4.78944C4.40084 16.666 4.08594 16.9809 4.08594 17.3695C4.08594 17.7581 4.40084 18.073 4.78944 18.073H6.19156C6.58016 18.073 6.89506 17.7581 6.89506 17.3695C6.89497 16.9808 6.58006 16.666 6.19147 16.666Z" fill="#1F5AFF"/>
<path d="M6.19147 23.4199H4.78944C4.40084 23.4199 4.08594 23.7348 4.08594 24.1234C4.08594 24.512 4.40084 24.8269 4.78944 24.8269H6.19156C6.58016 24.8269 6.89506 24.512 6.89506 24.1234C6.89497 23.7349 6.58006 23.4199 6.19147 23.4199Z" fill="#1F5AFF"/>
<path d="M6.19147 26.7969H4.78944C4.40084 26.7969 4.08594 27.1119 4.08594 27.5004C4.08594 27.889 4.40084 28.2039 4.78944 28.2039H6.19156C6.58016 28.2039 6.89506 27.889 6.89506 27.5004C6.89497 27.1119 6.58006 26.7969 6.19147 26.7969Z" fill="#1F5AFF"/>
<path d="M6.19147 30.1729H4.78944C4.40084 30.1729 4.08594 30.4879 4.08594 30.8764C4.08594 31.2649 4.40084 31.5799 4.78944 31.5799H6.19156C6.58016 31.5799 6.89506 31.2649 6.89506 30.8764C6.89497 30.4878 6.58006 30.1729 6.19147 30.1729Z" fill="#1F5AFF"/>
<path d="M6.19147 33.5498H4.78944C4.40084 33.5498 4.08594 33.8648 4.08594 34.2533C4.08594 34.6419 4.40084 34.9568 4.78944 34.9568H6.19156C6.58016 34.9568 6.89506 34.6419 6.89506 34.2533C6.89497 33.8648 6.58006 33.5498 6.19147 33.5498Z" fill="#1F5AFF"/>
<path d="M6.19147 36.9268H4.78944C4.40084 36.9268 4.08594 37.2418 4.08594 37.6303C4.08594 38.0189 4.40084 38.3338 4.78944 38.3338H6.19156C6.58016 38.3338 6.89506 38.0189 6.89506 37.6303C6.89497 37.2418 6.58006 36.9268 6.19147 36.9268Z" fill="#1F5AFF"/>
<path d="M19.1411 35.7115L17.9024 34.4728L19.1411 33.2342C19.4157 32.9591 19.4157 32.5138 19.1411 32.2391C18.8663 31.9646 18.4209 31.9646 18.1462 32.2391L16.4101 33.9752C16.1354 34.2501 16.1354 34.6954 16.4101 34.9702L18.1462 36.7062C18.2836 36.8436 18.4637 36.9122 18.6437 36.9122C18.8237 36.9122 19.0038 36.8436 19.1412 36.7062C19.4158 36.4315 19.4158 35.9861 19.1411 35.7115Z" fill="#1F5AFF"/>
<path d="M26.6783 33.975L24.9421 32.2391C24.6672 31.9646 24.2219 31.9646 23.9472 32.2391C23.6725 32.514 23.6725 32.9593 23.9472 33.234L25.1859 34.4726L23.9472 35.7113C23.6725 35.9861 23.6725 36.4315 23.9472 36.7061C24.0847 36.8435 24.2648 36.9121 24.4448 36.9121C24.6248 36.9121 24.8049 36.8435 24.9423 36.7061L26.6784 34.9701C26.9529 34.6952 26.9529 34.2499 26.6783 33.975Z" fill="#1F5AFF"/>
<path d="M22.6833 31.2877C22.3177 31.1549 21.9144 31.3431 21.7816 31.708L19.8317 37.0652C19.6988 37.4304 19.8871 37.834 20.2521 37.9669C20.3316 37.9958 20.4128 38.0095 20.4925 38.0095C20.7799 38.0095 21.0497 37.832 21.1538 37.5463L23.1037 32.1892C23.2366 31.8243 23.0484 31.4205 22.6833 31.2877Z" fill="#1F5AFF"/>
<path d="M5.47878 7.84001C5.47034 7.79604 5.45628 7.75104 5.43941 7.70876C5.42159 7.66657 5.40003 7.62523 5.37472 7.58773C5.34856 7.54835 5.31941 7.51273 5.28753 7.48066C5.15619 7.34941 4.97516 7.27441 4.78944 7.27441C4.60456 7.27441 4.42269 7.34941 4.29219 7.48066C4.25938 7.51263 4.23031 7.54826 4.20406 7.58773C4.17866 7.62513 4.15719 7.66648 4.14022 7.70876C4.12241 7.75095 4.10834 7.79595 4.09991 7.84001C4.09053 7.88595 4.08594 7.93207 4.08594 7.97801C4.08594 8.16279 4.16094 8.34466 4.29219 8.47516C4.42269 8.60641 4.60456 8.68151 4.78944 8.68151C4.83528 8.68151 4.88122 8.67673 4.92734 8.66745C4.97225 8.65901 5.01641 8.64495 5.05859 8.62713C5.10078 8.61016 5.14212 8.58776 5.18066 8.56245C5.219 8.53713 5.25472 8.50807 5.28763 8.47526C5.41803 8.34476 5.49303 8.16288 5.49303 7.9781C5.49284 7.93207 5.48806 7.88604 5.47878 7.84001Z" fill="#1F5AFF"/>
<path d="M7.67132 7.48066C7.53998 7.34941 7.35895 7.27441 7.17323 7.27441C6.98835 7.27441 6.80741 7.34941 6.67598 7.48066C6.54473 7.61116 6.46973 7.79304 6.46973 7.97791C6.46973 8.1627 6.54473 8.34457 6.67598 8.47507C6.80732 8.60632 6.98835 8.68141 7.17323 8.68141C7.35885 8.68141 7.53988 8.60632 7.67132 8.47507C7.80173 8.34457 7.87766 8.1627 7.87766 7.97791C7.87766 7.79304 7.80163 7.61116 7.67132 7.48066Z" fill="#1F5AFF"/>
<path d="M10.2484 7.84024C10.2391 7.79627 10.226 7.75127 10.2082 7.70899C10.1904 7.6668 10.1688 7.62546 10.1435 7.58796C10.1182 7.54859 10.0892 7.51296 10.0563 7.4809C10.0235 7.44809 9.98797 7.41912 9.94934 7.39277C9.91091 7.36737 9.87059 7.3459 9.82831 7.32809C9.78519 7.31121 9.74103 7.29715 9.69603 7.28777C9.60594 7.26996 9.51219 7.26996 9.42116 7.28777C9.37616 7.29715 9.33209 7.31121 9.28981 7.32809C9.24669 7.3459 9.20638 7.36746 9.16784 7.39277C9.12941 7.41902 9.09378 7.44809 9.06078 7.4809C9.02891 7.51287 8.999 7.54849 8.97359 7.58796C8.94828 7.62537 8.92672 7.66671 8.909 7.70899C8.89119 7.75118 8.87806 7.79618 8.86859 7.84024C8.86016 7.88618 8.85547 7.9323 8.85547 7.97824C8.85547 8.16302 8.93047 8.3449 9.06078 8.4754C9.09369 8.50821 9.12922 8.53727 9.16784 8.56259C9.20628 8.58799 9.24659 8.6104 9.28981 8.62727C9.332 8.64499 9.37606 8.65915 9.42116 8.66759C9.46606 8.67696 9.51294 8.68165 9.55906 8.68165C9.605 8.68165 9.65084 8.67687 9.69603 8.66759C9.74094 8.65915 9.78519 8.64509 9.82831 8.62727C9.8705 8.6103 9.91081 8.5879 9.94934 8.56259C9.98787 8.53727 10.0234 8.50821 10.0563 8.4754C10.1877 8.3449 10.2627 8.16302 10.2627 7.97824C10.2625 7.9323 10.2578 7.88627 10.2484 7.84024Z" fill="#1F5AFF"/>
<path d="M29.2617 7.27441H12.4877C12.0991 7.27441 11.7842 7.58932 11.7842 7.97791C11.7842 8.36651 12.0991 8.68141 12.4877 8.68141H29.2617C29.6503 8.68141 29.9652 8.36651 29.9652 7.97791C29.9651 7.58941 29.6502 7.27441 29.2617 7.27441Z" fill="#1F5AFF"/>
<path d="M34.6122 7.27441H31.7357C31.3471 7.27441 31.0322 7.58932 31.0322 7.97791C31.0322 8.36651 31.3471 8.68141 31.7357 8.68141H34.6122C35.0008 8.68141 35.3157 8.36651 35.3157 7.97791C35.3157 7.58941 35.0008 7.27441 34.6122 7.27441Z" fill="#1F5AFF"/>
<path d="M40.3635 21.8242H31.1342C30.7456 21.8242 30.4307 22.1391 30.4307 22.5277C30.4307 22.9163 30.7456 23.2312 31.1342 23.2312H40.3635C40.7521 23.2312 41.067 22.9163 41.067 22.5277C41.0669 22.139 40.7521 21.8242 40.3635 21.8242Z" fill="#1F5AFF"/>
<path d="M36.4284 18.4482H33.7553C33.3667 18.4482 33.0518 18.7631 33.0518 19.1517C33.0518 19.5403 33.3667 19.8552 33.7553 19.8552H36.4284C36.817 19.8552 37.1319 19.5403 37.1319 19.1517C37.1319 18.7631 36.817 18.4482 36.4284 18.4482Z" fill="#1F5AFF"/>
<path d="M43.4762 18.4482H39.1254C38.7368 18.4482 38.4219 18.7631 38.4219 19.1517C38.4219 19.5403 38.7368 19.8552 39.1254 19.8552H43.4762C43.8648 19.8552 44.1797 19.5403 44.1797 19.1517C44.1797 18.7632 43.8647 18.4482 43.4762 18.4482Z" fill="#1F5AFF"/>
<path d="M30.7305 18.4482H21.8431C21.4546 18.4482 21.1396 18.7631 21.1396 19.1517C21.1396 19.5403 21.4546 19.8552 21.8431 19.8552H30.7305C31.1191 19.8552 31.434 19.5403 31.434 19.1517C31.4339 18.7631 31.1191 18.4482 30.7305 18.4482Z" fill="#1F5AFF"/>
<path d="M28.5251 21.8242H25.8519C25.4633 21.8242 25.1484 22.1391 25.1484 22.5277C25.1484 22.9163 25.4633 23.2312 25.8519 23.2312H28.5251C28.9137 23.2312 29.2286 22.9163 29.2286 22.5277C29.2285 22.139 28.9137 21.8242 28.5251 21.8242Z" fill="#1F5AFF"/>
<path d="M23.1173 21.8242H21.7152C21.3266 21.8242 21.0117 22.1391 21.0117 22.5277C21.0117 22.9163 21.3266 23.2312 21.7152 23.2312H23.1173C23.5059 23.2312 23.8208 22.9163 23.8208 22.5277C23.8208 22.139 23.506 21.8242 23.1173 21.8242Z" fill="#1F5AFF"/>
<path d="M18.216 21.8242H16.8139C16.4253 21.8242 16.1104 22.1391 16.1104 22.5277C16.1104 22.9163 16.4253 23.2312 16.8139 23.2312H18.216C18.6046 23.2312 18.9195 22.9163 18.9195 22.5277C18.9195 22.1391 18.6046 21.8242 18.216 21.8242Z" fill="#1F5AFF"/>
<path d="M18.216 18.4482H16.8139C16.4253 18.4482 16.1104 18.7631 16.1104 19.1517C16.1104 19.5403 16.4253 19.8552 16.8139 19.8552H18.216C18.6046 19.8552 18.9195 19.5403 18.9195 19.1517C18.9195 18.7632 18.6046 18.4482 18.216 18.4482Z" fill="#1F5AFF"/>
<path d="M44.1655 22.3907C44.1571 22.3457 44.143 22.3017 44.1251 22.2585C44.1083 22.2163 44.0858 22.176 44.0605 22.1374C44.0351 22.099 44.0061 22.0623 43.9733 22.0304C43.9413 21.9976 43.9049 21.9685 43.8662 21.9423C43.8278 21.9169 43.7875 21.8955 43.7452 21.8777C43.7021 21.8608 43.658 21.8467 43.6129 21.8383C43.5229 21.8195 43.4291 21.8195 43.3381 21.8383C43.2932 21.8467 43.249 21.8608 43.2068 21.8777C43.1647 21.8955 43.1233 21.917 43.0848 21.9423C43.0464 21.9685 43.0108 21.9977 42.9779 22.0304C42.946 22.0622 42.9169 22.0988 42.8907 22.1374C42.8653 22.1759 42.8438 22.2162 42.826 22.2585C42.8082 22.3016 42.7951 22.3457 42.7857 22.3907C42.7772 22.4357 42.7725 22.4817 42.7725 22.5277C42.7725 22.5736 42.7772 22.6197 42.7857 22.6656C42.7951 22.7106 42.8081 22.7548 42.826 22.7969C42.8438 22.8391 42.8654 22.8804 42.8907 22.9179C42.9168 22.9573 42.946 22.993 42.9779 23.025C43.0107 23.0578 43.0462 23.0868 43.0848 23.1131C43.1233 23.1385 43.1646 23.16 43.2068 23.1778C43.249 23.1947 43.2931 23.2087 43.3381 23.2172C43.3841 23.2265 43.43 23.2312 43.4761 23.2312C43.5221 23.2312 43.568 23.2264 43.613 23.2172C43.658 23.2087 43.7022 23.1947 43.7453 23.1778C43.7875 23.16 43.8278 23.1384 43.8663 23.1131C43.9048 23.0869 43.9413 23.0578 43.9734 23.025C44.0062 22.9931 44.0352 22.9574 44.0606 22.9179C44.0859 22.8805 44.1084 22.8392 44.1252 22.7969C44.143 22.7548 44.1571 22.7106 44.1656 22.6656C44.175 22.6197 44.1796 22.5738 44.1796 22.5277C44.1795 22.4817 44.1748 22.4357 44.1655 22.3907Z" fill="#1F5AFF"/>
<path d="M46.171 28.9996H38.7408V26.4672H46.171C47.1795 26.4672 48.0001 25.6467 48.0001 24.6382V17.0412C48.0001 16.0327 47.1796 15.2121 46.171 15.2121H44.2082C43.8197 15.2121 43.5047 15.527 43.5047 15.9156C43.5047 16.3042 43.8197 16.6191 44.2082 16.6191H46.171C46.3997 16.6191 46.5931 16.8124 46.5931 17.0412V24.6382C46.5931 24.8669 46.3997 25.0602 46.171 25.0602C43.3752 25.0602 14.3607 25.0602 13.6134 25.0602C13.3845 25.0602 13.1913 24.8669 13.1913 24.6382V17.0412C13.1913 16.8124 13.3845 16.6191 13.6134 16.6191C14.7812 16.6191 39.7116 16.6191 40.9253 16.6191C41.3139 16.6191 41.6288 16.3042 41.6288 15.9156C41.6288 15.527 41.3139 15.2121 40.9253 15.2121H38.7408C38.7408 13.9031 38.7408 8.32598 38.7408 7.01067C38.7408 5.1054 37.1908 3.55534 35.2854 3.55534C1.43312 3.56031 3.48155 3.54521 3.20321 3.56631C1.71802 3.67787 0.500402 4.72524 0.127559 6.11377C-0.047847 6.76618 0.00868415 6.81774 0.00868415 15.7285C0.00868415 16.1171 0.32359 16.432 0.712183 16.432C1.10078 16.432 1.41568 16.1171 1.41568 15.7285V12.4006H37.3338V15.2122H13.6134C12.6049 15.2122 11.7843 16.0327 11.7843 17.0412V24.6383C11.7843 25.6468 12.6048 26.4673 13.6134 26.4673H37.3339V28.9997H13.6134C12.6049 28.9997 11.7843 29.8202 11.7843 30.8288V38.4259C11.7843 39.4344 12.6048 40.2549 13.6134 40.2549H37.3339V40.9896C37.3339 42.119 36.4149 43.038 35.2855 43.038H11.2001C10.8115 43.038 10.4966 43.353 10.4966 43.7415C10.4966 44.1301 10.8115 44.445 11.2001 44.445H35.2854C37.1907 44.445 38.7408 42.895 38.7408 40.9896V40.2549H46.171C47.1795 40.2549 48.0001 39.4344 48.0001 38.4259V30.8288C48.0001 29.8202 47.1795 28.9996 46.171 28.9996ZM1.41578 10.9936C1.41887 6.87277 1.20062 6.30802 2.08252 5.50008C2.44815 5.16633 2.93433 4.96243 3.46411 4.96243H35.2855C36.4149 4.96243 37.3339 5.88136 37.3339 7.01077V10.9936H1.41578ZM46.5931 38.4258C46.5931 38.6546 46.3997 38.8478 46.171 38.8478C43.3752 38.8478 14.3607 38.8478 13.6134 38.8478C13.3845 38.8478 13.1913 38.6546 13.1913 38.4258V30.8287C13.1913 30.5999 13.3845 30.4066 13.6134 30.4066C14.3986 30.4066 43.4942 30.4066 46.171 30.4066C46.3997 30.4066 46.5931 30.5999 46.5931 30.8287V38.4258Z" fill="#1F5AFF"/>
<path d="M7.91716 43.0377H3.46413C2.33473 43.0377 1.41579 42.1188 1.41579 40.9894V19.0111C1.41579 18.6225 1.10088 18.3076 0.712289 18.3076C0.323695 18.3076 0.00878906 18.6225 0.00878906 19.0111V40.9894C0.00878906 42.8947 1.55876 44.4447 3.46413 44.4447H7.91726C8.30585 44.4447 8.62076 44.1298 8.62076 43.7412C8.62066 43.3527 8.30585 43.0377 7.91716 43.0377Z" fill="#1F5AFF"/>
</g>
<defs>
<clipPath id="clip0_1071_3748">
<rect width="48" height="48" fill="white"/>
</clipPath>
</defs>
</svg>

<svg width="48" height="48" viewBox="0 0 48 48" fill="none" xmlns="http://www.w3.org/2000/svg"><g clip-path="url(#clip0_1071_3748)" fill="#1F5AFF"><path d="M6.191 20.043H4.79a.703.703 0 100 1.407h1.403a.703.703 0 100-1.407zm0-3.377H4.79a.703.703 0 100 1.407h1.403a.703.703 0 100-1.407zm0 6.754H4.79a.703.703 0 100 1.407h1.403a.703.703 0 100-1.407zm0 3.377H4.79a.703.703 0 100 1.407h1.403a.703.703 0 100-1.407zm0 3.376H4.79a.703.703 0 100 1.407h1.403a.703.703 0 100-1.407zm0 3.377H4.79a.703.703 0 100 1.407h1.403a.703.703 0 100-1.407zm0 3.377H4.79a.703.703 0 100 1.407h1.403a.703.703 0 100-1.407zm12.95-1.215l-1.239-1.24 1.24-1.238a.704.704 0 00-.996-.995l-1.736 1.736a.704.704 0 000 .995l1.736 1.736a.701.701 0 00.995 0 .703.703 0 000-.995zm7.537-1.737l-1.736-1.736a.704.704 0 00-.995.995l1.239 1.239-1.239 1.238a.703.703 0 10.995.995l1.736-1.736a.704.704 0 000-.995zm-3.995-2.687a.703.703 0 00-.901.42l-1.95 5.357a.704.704 0 101.322.481l1.95-5.357a.703.703 0 00-.42-.901zM5.479 7.84a.733.733 0 00-.104-.252.704.704 0 00-.586-.314.707.707 0 00-.703.704.707.707 0 00.841.69.702.702 0 00.551-.827zm2.192-.36a.709.709 0 00-.498-.206.708.708 0 00-.703.704.707.707 0 00.703.703.709.709 0 00.498-.206.71.71 0 00.207-.497.71.71 0 00-.207-.497zm2.577.36a.73.73 0 00-.192-.36.738.738 0 00-.228-.152.714.714 0 00-.66.065.754.754 0 00-.194.195.7.7 0 00-.119.39.71.71 0 00.313.585.652.652 0 00.122.064.649.649 0 00.27.055.68.68 0 00.268-.055.693.693 0 00.228-.152.706.706 0 00.192-.635zm19.014-.566H12.488a.703.703 0 100 1.407h16.774a.703.703 0 100-1.407zm5.35 0h-2.876a.703.703 0 100 1.407h2.876a.703.703 0 100-1.407zm5.752 14.55h-9.23a.703.703 0 100 1.407h9.23a.703.703 0 100-1.407zm-3.936-3.376h-2.673a.703.703 0 100 1.407h2.673a.703.703 0 100-1.407zm7.048 0h-4.35a.703.703 0 100 1.407h4.35a.703.703 0 100-1.407zm-12.746 0h-8.887a.703.703 0 100 1.407h8.887a.703.703 0 100-1.407zm-2.205 3.376h-2.673a.703.703 0 100 1.407h2.673a.703.703 0 100-1.407zm-5.408 0h-1.402a.703.703 0 100 1.407h1.402a.703.703 0 100-1.407zm-4.901 0h-1.402a.703.703 0 100 1.407h1.402a.703.703 0 100-1.407zm0-3.376h-1.402a.703.703 0 100 1.407h1.402a.703.703 0 100-1.407zm25.95 3.942a.665.665 0 00-.105-.253.647.647 0 00-.195-.195.736.736 0 00-.253-.104.677.677 0 00-.406.04.766.766 0 00-.122.064.753.753 0 00-.194.195.741.741 0 00-.105.254.74.74 0 000 .275.702.702 0 00.552.551.694.694 0 00.635-.192.605.605 0 00.088-.107.641.641 0 00.064-.121.648.648 0 00.055-.27.685.685 0 00-.014-.136z"/><path d="M46.171 29h-7.43v-2.533h7.43c1.008 0 1.83-.82 1.83-1.829v-7.597a1.832 1.832 0 00-1.83-1.829h-1.963a.703.703 0 100 1.407h1.963c.229 0 .422.193.422.422v7.597a.428.428 0 01-.422.422H13.613a.428.428 0 01-.422-.422v-7.597c0-.229.193-.422.422-.422h27.312a.703.703 0 100-1.407h-2.184V7.011a3.46 3.46 0 00-3.456-3.456c-33.852.005-31.803-.01-32.082.011A3.458 3.458 0 00.128 6.114c-.176.652-.12.704-.12 9.615a.703.703 0 101.408 0V12.4h35.918v2.811h-23.72c-1.01 0-1.83.82-1.83 1.83v7.596c0 1.009.82 1.83 1.83 1.83h23.72V29h-23.72c-1.01 0-1.83.82-1.83 1.829v7.597c0 1.008.82 1.829 1.83 1.829h23.72v.735a2.05 2.05 0 01-2.049 2.048H11.2a.703.703 0 100 1.407h24.085a3.46 3.46 0 003.456-3.455v-.735h7.43c1.008 0 1.83-.82 1.83-1.83V30.83c0-1.009-.822-1.83-1.83-1.83zM1.416 10.994c.003-4.121-.215-4.686.667-5.494a2.046 2.046 0 011.381-.538h31.822a2.05 2.05 0 012.048 2.049v3.983H1.416zm45.177 27.432a.428.428 0 01-.422.422H13.613a.428.428 0 01-.422-.422v-7.597c0-.23.193-.422.422-.422h32.558c.229 0 .422.193.422.422v7.597z"/><path d="M7.917 43.038H3.464a2.05 2.05 0 01-2.048-2.049V19.011a.703.703 0 10-1.407 0V40.99a3.46 3.46 0 003.455 3.456h4.453a.703.703 0 100-1.407z"/></g><defs><clipPath id="clip0_1071_3748"><path fill="#fff" d="M0 0h48v48H0z"/></clipPath></defs></svg>
